Pods/ProtonCore-UIFoundations/libraries/UIFoundations/Sources/Assets.xcassets/Images/IconSet/ic-user.imageset/ic-user.svg

<svg width="24" height="24" viewBox="0 0 24 24" fill="none" xmlns="http://www.w3.org/2000/svg">
<path fill-rule="evenodd" clip-rule="evenodd" d="M15 7.5C15 9.15685 13.6569 10.5 12 10.5C10.3431 10.5 9 9.15685 9 7.5C9 5.84315 10.3431 4.5 12 4.5C13.6569 4.5 15 5.84315 15 7.5ZM16.5 7.5C16.5 9.98528 14.4853 12 12 12C9.51472 12 7.5 9.98528 7.5 7.5C7.5 5.01472 9.51472 3 12 3C14.4853 3 16.5 5.01472 16.5 7.5ZM5.78323 16.4706C6.3379 15.5688 7.35016 15 8.46117 15H15.5388C16.6498 15 17.6621 15.5688 18.2168 16.4706L19.3901 18.3782C19.6631 18.8222 19.3762 19.5 18.6899 19.5H5.31006C4.62384 19.5 4.33686 18.8222 4.60992 18.3782L5.78323 16.4706ZM4.50556 15.6848C5.33924 14.3293 6.8408 13.5 8.46117 13.5H15.5388C17.1592 13.5 18.6608 14.3293 19.4944 15.6848L20.6677 17.5924C21.5901 19.0921 20.4828 21 18.6899 21H5.31006C3.51723 21 2.40985 19.0921 3.33225 17.5924L4.50556 15.6848Z" fill="#0C0C14"/>
</svg>

<svg xmlns="http://www.w3.org/2000/svg" width="24" height="24" viewBox="0 0 24 24">
  <g class="ic-user">
    <path fill-rule="evenodd" d="M15 7.5a3 3 0 1 1-6 0 3 3 0 0 1 6 0Zm1.5 0a4.5 4.5 0 1 1-9 0 4.5 4.5 0 0 1 9 0ZM5.783 16.47A3.138 3.138 0 0 1 8.461 15h7.078c1.11 0 2.123.569 2.678 1.47l1.173 1.908c.273.444-.014 1.122-.7 1.122H5.31c-.686 0-.973-.678-.7-1.122l1.173-1.907Zm-1.277-.785C5.339 14.329 6.84 13.5 8.46 13.5h7.078c1.62 0 3.122.83 3.955 2.185l1.174 1.907c.922 1.5-.185 3.408-1.978 3.408H5.31c-1.793 0-2.9-1.908-1.978-3.408l1.174-1.907Z" class="Icon"/>
  </g>
</svg>
